img/phone-icon.svg

<svg  viewBox="0 0 21 21" fill="none" xmlns="http://www.w3.org/2000/svg">
<path fill-rule="evenodd" clip-rule="evenodd" d="M1.49033 3.37254C1.80665 2.84878 3.5495 0.943765 4.79322 1.00127C5.165 1.03208 5.49364 1.25699 5.76067 1.51784C6.37379 2.11656 8.12897 4.38101 8.22859 4.85753C8.47096 6.02621 7.07833 6.6999 7.50454 7.87783C8.59112 10.5366 10.4634 12.4088 13.1233 13.4943C14.3003 13.9205 14.974 12.5279 16.1428 12.7713C16.6183 12.8709 18.8839 14.626 19.4826 15.2391C19.7425 15.5051 19.9684 15.8347 19.9992 16.2065C20.0454 17.5159 18.0222 19.2833 17.6278 19.5092C16.6974 20.1747 15.4834 20.1634 14.0035 19.4753C9.87387 17.7572 3.27426 11.2822 1.52422 6.99669C0.854608 5.52505 0.808393 4.30297 1.49033 3.37254Z" stroke="white" stroke-linecap="round" stroke-linejoin="round"/>
</svg>

<svg viewBox="0 0 21 21" fill="none" xmlns="http://www.w3.org/2000/svg"><path clip-rule="evenodd" d="M1.49 3.373C1.807 2.849 3.55.943 4.793 1c.372.031.7.256.968.517.613.599 2.368 2.863 2.468 3.34.242 1.168-1.15 1.842-.724 3.02 1.086 2.659 2.958 4.53 5.618 5.616 1.177.427 1.851-.966 3.02-.723.475.1 2.74 1.855 3.34 2.468.26.266.485.596.516.967.046 1.31-1.977 3.077-2.371 3.303-.93.666-2.145.654-3.624-.034-4.13-1.718-10.73-8.193-12.48-12.478-.67-1.472-.716-2.694-.034-3.624z" stroke="#fff" stroke-linecap="round" stroke-linejoin="round"/></svg>
